svgs/sharp-solid/flask-vial.svg

<svg xmlns="http://www.w3.org/2000/svg" viewBox="0 0 640 512"><!--! Font Awesome Pro 6.6.0 by @fontawesome - https://fontawesome.com License - https://fontawesome.com/license (Commercial License) Copyright 2024 Fonticons, Inc. --><path d="M224 0l32 0 0 64-32 0 0 245.9-59.3 96.3-4.7 7.7 0 9.1 0 19.6c-10 3.5-20.8 5.5-32 5.5c-53 0-96-43-96-96L32 64 0 64 0 0 32 0 96 0l64 0 64 0zM196.7 415.2L221 375.8l99-160.8L320 64l-32 0 0-64 32 0 32 0L480 0l32 0 32 0 0 64-32 0 0 150.9L635.3 415.2l4.7 7.7 0 9.1 0 48 0 32-32 0-384 0-32 0 0-32 0-48 0-8.4 0-.6 4.7-7.7zM96 64l0 96 64 0 0-96L96 64zm288 0l0 160 0 9.1-4.7 7.7L330.5 320l171 0-48.8-79.2-4.7-7.7 0-9.1 0-160-64 0z"/></svg>

<svg xmlns="http://www.w3.org/2000/svg" viewBox="0 0 640 512"><!--! Font Awesome Pro 6.4.0 by @fontawesome - https://fontawesome.com License - https://fontawesome.com/license (Commercial License) Copyright 2023 Fonticons, Inc. --><path d="M224 0h32V64H224V309.9l-59.3 96.3-4.7 7.7v9.1 19.6c-10 3.5-20.8 5.5-32 5.5c-53 0-96-43-96-96V64H0V0H32 96h64 64zM196.7 415.2L221 375.8l99-160.8V64H288V0h32 32H480h32 32V64H512V214.9L635.3 415.2l4.7 7.7V432v48 32H608 224 192V480 432v-8.4-.6l4.7-7.7zM96 64v96h64V64H96zm288 0V224v9.1l-4.7 7.7L330.5 320h171l-48.8-79.2-4.7-7.7V224 64H384z"/></svg>
